icon-themes/breeze_svg/cmd/lc_deleteannotation.svg

<svg viewBox="0 0 24 24" xmlns="http://www.w3.org/2000/svg"><path d="m4 4v10l3 4v-3-1h13v-10zm1 1h14v8h-14zm10 12v1h5v-1z" fill="#f47750"/></svg>

<svg xmlns="http://www.w3.org/2000/svg" viewBox="0 0 24 24">
 <path 
     style="fill:#f47750" 
     d="M 4 4 L 4 14 L 7 18 L 7 15 L 7 14 L 20 14 L 20 4 L 4 4 z M 5 5 L 19 5 L 19 13 L 5 13 L 5 5 z M 15 17 L 15 18 L 20 18 L 20 17 L 15 17 z "
     />
 </svg>
